X:1
T:Minuet in d
T:Minuet in d Minor
T:Johann Sebastian Bach
T:Anna Magdelena Bach Notebook BWV Anh 132
T:Public Domain (PianoXML typeset)
C:J S Bach
Z:Public Domain (PianoXML typeset)
%%score { 1 | 2 }
L:1/8
M:3/4
K:F
V:1 treble nm="Piano"
V:2 bass 
V:1
!mf! A2 (fed^c | d2) A2 B2 | (^CEGBAG | F2) (EF D2) | F2 (BA) (dc) | d/4e/4f3/2 (ed cB | %6
 AB/c/ F2) E2 | F6 |!p! A2 (fed^c | d2) A2 B2 | (^CEGBAG | F2) (EF D2) | F2 (BA) (dc) | %13
 d/4e/4f3/2 (edcB | AB/c/ F2) E2 | F6 |:!f! a2 F(agf | e/f/g c4) |!p! f2 D(fed | ^c/d/e A4) | %20
 (A=B^cdef | ge^c_bag | f/e/d e2) ^c2 | d6 |!f! a2 F(agf | e/f/g c4) |!mp! f2 D(fed | ^c/d/e A4) | %28
 (A=B^cdef | ge^c!mf!bag |!f! f/e/d e2) ^c2 | d6 |] %32
V:2
 (D,4 E,2 | F,4 G,2 | A,4 A,,2 | D,2) A,,2 D,,2 | (D,2 C,2 B,,2 | A,,4) (E,2 | F,2 A,,2) C,2 | %7
 F,,2 (F,E,D,^C,) | (D,4 E,2 | F,4 G,2 | A,4 A,,2 | D,2) A,,2 D,,2 | (D,2 C,2 B,,2 | A,,4) (E,2 | %14
 F,2 A,,2) C,2 | F,2 C,2 F,,2 |: (F,2 A,2 B,2 | C3) (G,E,C, | D,2 C,2 B,,2 | A,,=B,,^C,D,E,F, | %20
 G,2 E,2 ^C,2 | A,,2) (A,2 ^C2 | D2 G,2) A,2 | D,2 (D,,A,,D,E, | F,2 A,2 B,2 | C3) (G,E,C, | %26
 D,2 C,2 B,,2 | A,,=B,,^C,D,E,F, | G,2 E,2 ^C,2 | A,,2) (A,2 ^C2 | D2) G,2 A,2 | D,2 A,,2 D,,2 |] %32

